v2/perps-v2/ui/public/asset-icons/XAU.svg

<svg width="50" height="50" viewBox="0 0 50 50" fill="none" xmlns="http://www.w3.org/2000/svg">
<g filter="url(#filter0_d_5735_52277)">
<mask id="mask0_5735_52277" style="mask-type:alpha" maskUnits="userSpaceOnUse" x="4" y="0" width="42" height="42">
<circle cx="25" cy="21" r="21" fill="url(#paint0_linear_5735_52277)"/>
</mask>
<g mask="url(#mask0_5735_52277)">
<circle cx="25" cy="21" r="21" fill="#31D8A4"/>
<ellipse cx="24.9997" cy="21" rx="18.2" ry="18.2" fill="white"/>
</g>
<ellipse cx="24.9999" cy="21" rx="16.1" ry="16.1" fill="#0E052F"/>
<path d="M25 37.1C33.8918 37.1 41.1 29.8918 41.1 21C41.1 12.1082 33.8918 4.89999 25 4.89999C16.1082 4.89999 8.89999 12.1082 8.89999 21C8.89999 29.8918 16.1082 37.1 25 37.1Z" fill="#0E052F"/>
<g style="mix-blend-mode:multiply" opacity="0.4">
<g style="mix-blend-mode:multiply" opacity="0.4">
<path d="M13.4056 18.9083L12.3347 22.5478L18.8006 26.4011L18.5009 21.734L13.4056 18.9083Z" fill="#FB8E2F"/>
</g>
<g style="mix-blend-mode:multiply" opacity="0.4">
<path d="M24.1097 12.7853L29.0765 15.6536L18.5009 21.734L13.4056 18.9083L24.1097 12.7853Z" fill="#FB8E2F"/>
</g>
<g style="mix-blend-mode:multiply" opacity="0.4">
<path d="M30.3612 19.5502L29.0765 15.6536L18.5009 21.734L18.8006 26.4011L30.3612 19.5502Z" fill="#FB8E2F"/>
</g>
<g style="mix-blend-mode:multiply" opacity="0.4">
<path d="M16.8865 16.917V20.8386L17.7752 21.3314H18.0808V16.2339L16.8865 16.917Z" fill="#FB8E2F"/>
</g>
<g style="mix-blend-mode:multiply" opacity="0.4">
<path d="M26.2626 17.2718L26.9758 16.8619V14.4402L26.2626 14.0289V17.2718Z" fill="#FB8E2F"/>
</g>
<g style="mix-blend-mode:multiply" opacity="0.4">
<path d="M18.888 21.5114L20.3145 20.6917V14.9566L18.888 15.7719V21.5114Z" fill="#FB8E2F"/>
</g>
<g style="mix-blend-mode:multiply" opacity="0.4">
<path d="M18.8006 26.4011L18.5009 21.734L13.4056 18.9083" stroke="#FB8E2F" stroke-width="0.25" stroke-miterlimit="10" stroke-linecap="round"/>
</g>
<g style="mix-blend-mode:multiply" opacity="0.4">
<path d="M18.4789 21.7736C17.3639 21.1287 14.4648 19.5253 13.4056 18.909C14.4765 19.4731 17.3984 21.0986 18.5222 21.6958C18.5326 21.7015 18.5404 21.7112 18.5437 21.7226C18.547 21.734 18.5456 21.7463 18.5399 21.7567C18.5341 21.7671 18.5245 21.7749 18.513 21.7782C18.5016 21.7815 18.4893 21.7801 18.4789 21.7743V21.7736Z" fill="#FB8E2F"/>
</g>
<g style="mix-blend-mode:multiply" opacity="0.4">
<path d="M29.0773 15.6543C29.0728 15.6279 18.4047 21.9066 18.5509 21.731L18.8006 26.4011L18.4503 21.7376V21.706C18.4701 21.6906 29.056 15.6705 29.0795 15.6543H29.0773Z" fill="#FB8E2F"/>
</g>
</g>
<path d="M13.4056 18.4676L12.3347 22.1071L18.8006 25.9604L18.5009 21.2932L13.4056 18.4676Z" fill="#FA9B3D"/>
<path d="M24.1097 12.3446L29.0765 15.2137L18.5009 21.2933L13.4056 18.4676L24.1097 12.3446Z" fill="#FFDB59"/>
<path d="M30.3612 19.1095L29.0765 15.2137L18.5009 21.2933L18.8006 25.9604L30.3612 19.1095Z" fill="#FEBD59"/>
<path d="M16.8865 16.4763V20.3979L17.7752 20.8907H18.0808V15.7932L16.8865 16.4763Z" fill="#FEEC96"/>
<path d="M26.2626 16.8311L26.9758 16.4212V13.9995L26.2626 13.5882V16.8311Z" fill="#FEEC96"/>
<path d="M18.888 21.0707L20.3145 20.251V14.5159L18.888 15.3312V21.0707Z" fill="#FEEC96"/>
<path d="M18.8006 25.9604L18.5009 21.2932L13.4056 18.4676" stroke="white" stroke-width="0.25" stroke-miterlimit="10" stroke-linecap="round"/>
<path d="M18.4789 21.3329C17.3639 20.688 14.4648 19.0846 13.4056 18.4683C14.4765 19.0324 17.3984 20.6579 18.5222 21.2551C18.5326 21.2608 18.5404 21.2704 18.5437 21.2819C18.547 21.2933 18.5456 21.3056 18.5399 21.316C18.5341 21.3264 18.5245 21.3341 18.513 21.3375C18.5016 21.3408 18.4893 21.3394 18.4789 21.3336V21.3329Z" fill="white"/>
<path d="M29.0773 15.2136C29.0728 15.1872 18.4047 21.4659 18.5509 21.2903L18.8006 25.9604L18.4503 21.2969V21.2653C18.4701 21.2499 29.056 15.2298 29.0795 15.2136H29.0773Z" fill="white"/>
<g style="mix-blend-mode:multiply" opacity="0.4">
<g style="mix-blend-mode:multiply" opacity="0.4">
<path d="M20.6714 23.488L19.6013 27.1275L26.0672 30.9808L25.7668 26.3137L20.6714 23.488Z" fill="#FB8E2F"/>
</g>
<g style="mix-blend-mode:multiply" opacity="0.4">
<path d="M31.3763 17.3651L36.3431 20.2333L25.7668 26.3137L20.6714 23.488L31.3763 17.3651Z" fill="#FB8E2F"/>
</g>
<g style="mix-blend-mode:multiply" opacity="0.4">
<path d="M37.6278 24.13L36.3431 20.2333L25.7668 26.3137L26.0672 30.9808L37.6278 24.13Z" fill="#FB8E2F"/>
</g>
<g style="mix-blend-mode:multiply" opacity="0.4">
<path d="M24.1531 21.4967V25.4183L25.0418 25.9111H25.3467V20.8136L24.1531 21.4967Z" fill="#FB8E2F"/>
</g>
<g style="mix-blend-mode:multiply" opacity="0.4">
<path d="M33.5292 21.8515L34.2424 21.4416V19.0199L33.5292 18.6078V21.8515Z" fill="#FB8E2F"/>
</g>
<g style="mix-blend-mode:multiply" opacity="0.4">
<path d="M26.1546 26.0911L27.5803 25.2714V19.5356L26.1546 20.3516V26.0911Z" fill="#FB8E2F"/>
</g>
<g style="mix-blend-mode:multiply" opacity="0.4">
<path d="M26.0672 30.9808L25.7668 26.3137L20.6714 23.488" stroke="#FB8E2F" stroke-width="0.25" stroke-miterlimit="10" stroke-linecap="round"/>
</g>
<g style="mix-blend-mode:multiply" opacity="0.4">
<path d="M25.7455 26.3533C24.6305 25.7084 21.7314 24.105 20.6714 23.4887C21.7424 24.0528 24.665 25.6783 25.7888 26.2747C25.7979 26.2812 25.8042 26.2908 25.8067 26.3016C25.8091 26.3124 25.8076 26.3238 25.8022 26.3336C25.7969 26.3433 25.7882 26.3508 25.7777 26.3545C25.7673 26.3583 25.7558 26.3582 25.7455 26.3541V26.3533Z" fill="#FB8E2F"/>
</g>
<g style="mix-blend-mode:multiply" opacity="0.4">
<path d="M36.3431 20.2334C36.3394 20.2069 25.6713 26.4856 25.8175 26.3108L26.0665 30.9808L25.7169 26.3166V26.2858C25.7367 26.2704 36.3218 20.2503 36.3453 20.2334H36.3431Z" fill="#FB8E2F"/>
</g>
</g>
<path d="M20.6714 23.0473L19.6013 26.6868L26.0672 30.5401L25.7668 25.873L20.6714 23.0473Z" fill="#FA9B3D"/>
<path d="M31.3763 16.9243L36.3431 19.7926L25.7668 25.873L20.6714 23.0473L31.3763 16.9243Z" fill="#FFDB59"/>
<path d="M37.6278 23.6892L36.3431 19.7926L25.7668 25.873L26.0672 30.5401L37.6278 23.6892Z" fill="#FEBD59"/>
<path d="M24.153 21.056V24.9776L25.0418 25.4704H25.3466V20.3729L24.153 21.056Z" fill="#FEEC96"/>
<path d="M33.5291 21.4108L34.2424 21.0009V18.5792L33.5291 18.1671V21.4108Z" fill="#FEEC96"/>
<path d="M26.1546 25.6504L27.5803 24.8307V19.0948L26.1546 19.9109V25.6504Z" fill="#FEEC96"/>
<path d="M26.0672 30.5401L25.7668 25.873L20.6714 23.0473" stroke="white" stroke-width="0.25" stroke-miterlimit="10" stroke-linecap="round"/>
<path d="M25.7455 25.9126C24.6305 25.2677 21.7313 23.6643 20.6714 23.048C21.7423 23.6121 24.665 25.2376 25.7888 25.834C25.7978 25.8405 25.8042 25.8501 25.8066 25.8609C25.8091 25.8717 25.8075 25.8831 25.8022 25.8928C25.7969 25.9026 25.7882 25.9101 25.7777 25.9138C25.7673 25.9176 25.7558 25.9174 25.7455 25.9134V25.9126Z" fill="white"/>
<path d="M36.3431 19.7926C36.3394 19.7662 25.6713 26.0448 25.8175 25.87L26.0665 30.5401L25.7168 25.8759V25.845C25.7367 25.8296 36.3218 19.8095 36.3453 19.7926H36.3431Z" fill="white"/>
<g style="mix-blend-mode:multiply" opacity="0.4">
<g style="mix-blend-mode:multiply" opacity="0.4">
<path d="M17.2052 17.6897L16.1343 21.3292L22.6003 25.1825L22.3006 20.5154L17.2052 17.6897Z" fill="#FB8E2F"/>
</g>
<g style="mix-blend-mode:multiply" opacity="0.4">
<path d="M27.9101 11.566L32.8769 14.4351L22.3006 20.5154L17.2052 17.6897L27.9101 11.566Z" fill="#FB8E2F"/>
</g>
<g style="mix-blend-mode:multiply" opacity="0.4">
<path d="M34.1616 18.3317L32.8769 14.4351L22.3006 20.5154L22.6003 25.1825L34.1616 18.3317Z" fill="#FB8E2F"/>
</g>
<g style="mix-blend-mode:multiply" opacity="0.4">
<path d="M20.6861 15.6984V19.62L21.5749 20.1129H21.8805V15.0153L20.6861 15.6984Z" fill="#FB8E2F"/>
</g>
<g style="mix-blend-mode:multiply" opacity="0.4">
<path d="M30.063 16.0532L30.7754 15.6433V13.2216L30.063 12.8096V16.0532Z" fill="#FB8E2F"/>
</g>
<g style="mix-blend-mode:multiply" opacity="0.4">
<path d="M22.6884 20.2928L24.1141 19.4731V13.7373L22.6884 14.5533V20.2928Z" fill="#FB8E2F"/>
</g>
<g style="mix-blend-mode:multiply" opacity="0.4">
<path d="M22.6003 25.1825L22.3006 20.5154L17.2052 17.6897" stroke="#FB8E2F" stroke-width="0.25" stroke-miterlimit="10" stroke-linecap="round"/>
</g>
<g style="mix-blend-mode:multiply" opacity="0.4">
<path d="M22.2778 20.555C21.1628 19.9094 18.2637 18.3067 17.2045 17.6904C18.2754 18.2545 21.1973 19.88 22.3219 20.4765C22.3313 20.4828 22.3381 20.4925 22.3407 20.5036C22.3434 20.5147 22.3418 20.5264 22.3363 20.5363C22.3307 20.5463 22.3216 20.5538 22.3108 20.5574C22.3 20.561 22.2882 20.5604 22.2778 20.5558V20.555Z" fill="#FB8E2F"/>
</g>
<g style="mix-blend-mode:multiply" opacity="0.4">
<path d="M32.8769 14.4351C32.8725 14.4086 22.2044 20.6873 22.3513 20.5124L22.601 25.1825L22.2514 20.5183V20.4875C22.2712 20.472 32.8571 14.4512 32.8806 14.4351H32.8769Z" fill="#FB8E2F"/>
</g>
</g>
<path d="M17.2052 17.249L16.1343 20.8885L22.6003 24.7418L22.3006 20.0747L17.2052 17.249Z" fill="#FA9B3D"/>
<path d="M27.9101 11.1253L32.8769 13.9944L22.3006 20.0747L17.2053 17.249L27.9101 11.1253Z" fill="#FFDB59"/>
<path d="M34.1616 17.891L32.8769 13.9944L22.3006 20.0747L22.6003 24.7418L34.1616 17.891Z" fill="#FEBD59"/>
<path d="M20.6861 15.2577V19.1793L21.5749 19.6722H21.8805V14.5746L20.6861 15.2577Z" fill="#FEEC96"/>
<path d="M30.063 15.6125L30.7754 15.2026V12.7809L30.063 12.3689V15.6125Z" fill="#FEEC96"/>
<path d="M22.6884 19.8521L24.1141 19.0324V13.2966L22.6884 14.1126V19.8521Z" fill="#FEEC96"/>
<path d="M22.6003 24.7418L22.3006 20.0747L17.2053 17.249" stroke="white" stroke-width="0.25" stroke-miterlimit="10" stroke-linecap="round"/>
<path d="M22.2778 20.1143C21.1628 19.4687 18.2637 17.866 17.2045 17.2497C18.2754 17.8138 21.1973 19.4393 22.3219 20.0357C22.3313 20.0421 22.3381 20.0518 22.3407 20.0629C22.3434 20.074 22.3418 20.0857 22.3363 20.0956C22.3307 20.1056 22.3216 20.1131 22.3108 20.1167C22.3 20.1203 22.2882 20.1197 22.2778 20.1151V20.1143Z" fill="white"/>
<path d="M32.8769 13.9943C32.8725 13.9679 22.2044 20.2466 22.3513 20.0717L22.601 24.7418L22.2514 20.0776V20.0468C22.2712 20.0313 32.8571 14.0105 32.8806 13.9943H32.8769Z" fill="white"/>
</g>
<defs>
<filter id="filter0_d_5735_52277" x="0" y="0" width="50" height="50" filterUnits="userSpaceOnUse" color-interpolation-filters="sRGB">
<feFlood flood-opacity="0" result="BackgroundImageFix"/>
<feColorMatrix in="SourceAlpha" type="matrix" values="0 0 0 0 0 0 0 0 0 0 0 0 0 0 0 0 0 0 127 0" result="hardAlpha"/>
<feOffset dy="4"/>
<feGaussianBlur stdDeviation="2"/>
<feComposite in2="hardAlpha" operator="out"/>
<feColorMatrix type="matrix" values="0 0 0 0 0 0 0 0 0 0 0 0 0 0 0 0 0 0 0.25 0"/>
<feBlend mode="normal" in2="BackgroundImageFix" result="effect1_dropShadow_5735_52277"/>
<feBlend mode="normal" in="SourceGraphic" in2="effect1_dropShadow_5735_52277" result="shape"/>
</filter>
<linearGradient id="paint0_linear_5735_52277" x1="25" y1="0" x2="25" y2="61.4091" gradientUnits="userSpaceOnUse">
<stop stop-color="#08021E"/>
<stop offset="1" stop-color="#1F0777"/>
</linearGradient>
</defs>
</svg>

<svg width="50" height="50" fill="none" xmlns="http://www.w3.org/2000/svg"><g filter="url(#a)"><mask id="c" style="mask-type:alpha" maskUnits="userSpaceOnUse" x="4" y="0" width="42" height="42"><circle cx="25" cy="21" r="21" fill="url(#b)"/></mask><g mask="url(#c)"><circle cx="25" cy="21" r="21" fill="#31D8A4"/><circle cx="25" cy="21" fill="#fff" r="18.2"/></g><circle cx="25" cy="21" fill="#0E052F" r="16.1"/><path d="M25 37.1c8.892 0 16.1-7.208 16.1-16.1 0-8.892-7.208-16.1-16.1-16.1-8.892 0-16.1 7.208-16.1 16.1 0 8.892 7.208 16.1 16.1 16.1Z" fill="#0E052F"/><g style="mix-blend-mode:multiply" opacity=".4"><path d="m13.406 18.908-1.071 3.64L18.8 26.4l-.3-4.667-5.095-2.826Z" fill="#FB8E2F" style="mix-blend-mode:multiply" opacity=".4"/><path d="m24.11 12.785 4.966 2.869-10.575 6.08-5.095-2.826 10.704-6.123Z" fill="#FB8E2F" style="mix-blend-mode:multiply" opacity=".4"/><path d="m30.361 19.55-1.285-3.896-10.575 6.08.3 4.667 11.56-6.85Zm-13.474-2.633v3.922l.888.492h.306v-5.097l-1.194.683Z" fill="#FB8E2F" style="mix-blend-mode:multiply" opacity=".4"/><path d="m26.263 17.272.713-.41V14.44l-.713-.411v3.243Zm-7.375 4.239 1.426-.82v-5.734l-1.426.815v5.74Z" fill="#FB8E2F" style="mix-blend-mode:multiply" opacity=".4"/><path d="m18.8 26.401-.3-4.667-5.094-2.826" stroke="#FB8E2F" stroke-width=".25" stroke-miterlimit="10" stroke-linecap="round" style="mix-blend-mode:multiply" opacity=".4"/><path d="M18.479 21.774c-1.115-.645-4.014-2.249-5.073-2.865 1.07.564 3.992 2.19 5.116 2.787a.045.045 0 1 1-.043.078Z" fill="#FB8E2F" style="mix-blend-mode:multiply" opacity=".4"/><path d="M29.077 15.654c-.004-.026-10.672 6.253-10.526 6.077l.25 4.67-.35-4.663v-.032c.02-.015 10.605-6.035 10.628-6.052h-.002Z" fill="#FB8E2F" style="mix-blend-mode:multiply" opacity=".4"/></g><path d="m13.406 18.468-1.071 3.64L18.8 25.96l-.3-4.667-5.095-2.825Z" fill="#FA9B3D"/><path d="m24.11 12.345 4.966 2.869-10.575 6.08-5.095-2.826 10.704-6.123Z" fill="#FFDB59"/><path d="m30.361 19.11-1.285-3.896-10.575 6.08.3 4.666 11.56-6.85Z" fill="#FEBD59"/><path d="M16.887 16.476v3.922l.888.493h.306v-5.098l-1.194.683Zm9.376.355.713-.41V14l-.713-.412v3.243Zm-7.375 4.239 1.426-.819v-5.735l-1.426.815v5.74Z" fill="#FEEC96"/><path d="m18.8 25.96-.3-4.667-5.094-2.825" stroke="#fff" stroke-width=".25" stroke-miterlimit="10" stroke-linecap="round"/><path d="M18.479 21.333c-1.115-.645-4.014-2.248-5.073-2.865 1.07.564 3.992 2.19 5.116 2.787a.045.045 0 0 1 .018.061.045.045 0 0 1-.061.018v-.001Z" fill="#fff"/><path d="M29.077 15.214c-.004-.027-10.672 6.252-10.526 6.076l.25 4.67-.35-4.663v-.032c.02-.015 10.605-6.035 10.628-6.051h-.002Z" fill="#fff"/><g style="mix-blend-mode:multiply" opacity=".4"><path d="m20.671 23.488-1.07 3.64 6.466 3.853-.3-4.667-5.096-2.826Zm10.705-6.123 4.967 2.868-10.576 6.08-5.096-2.825 10.705-6.123Zm6.252 6.765-1.285-3.897-10.576 6.08.3 4.668 11.56-6.851Z" fill="#FB8E2F" style="mix-blend-mode:multiply" opacity=".4"/><path d="M24.153 21.497v3.921l.889.493h.305v-5.097l-1.194.683Zm9.377.355.712-.41V19.02l-.713-.412v3.244Zm-7.375 4.239 1.425-.82v-5.735l-1.425.816v5.74Z" fill="#FB8E2F" style="mix-blend-mode:multiply" opacity=".4"/><path d="m26.067 30.98-.3-4.666-5.096-2.826" stroke="#FB8E2F" stroke-width=".25" stroke-miterlimit="10" stroke-linecap="round" style="mix-blend-mode:multiply" opacity=".4"/><path d="M25.745 26.353c-1.114-.645-4.014-2.248-5.074-2.864 1.071.564 3.994 2.19 5.118 2.786a.046.046 0 0 1 .013.059.045.045 0 0 1-.024.02.045.045 0 0 1-.032 0Z" fill="#FB8E2F" style="mix-blend-mode:multiply" opacity=".4"/><path d="M36.343 20.233c-.004-.026-10.672 6.253-10.526 6.078l.25 4.67-.35-4.664v-.031c.02-.016 10.605-6.036 10.628-6.053h-.002Z" fill="#FB8E2F" style="mix-blend-mode:multiply" opacity=".4"/></g><path d="m20.671 23.047-1.07 3.64 6.466 3.853-.3-4.667-5.096-2.826Z" fill="#FA9B3D"/><path d="m31.376 16.924 4.967 2.869-10.576 6.08-5.096-2.826 10.705-6.123Z" fill="#FFDB59"/><path d="m37.628 23.69-1.285-3.897-10.576 6.08.3 4.667 11.56-6.85Z" fill="#FEBD59"/><path d="M24.153 21.056v3.922l.889.492h.305v-5.097l-1.194.683Zm9.377.354.712-.41v-2.42l-.713-.413v3.244Zm-7.375 4.24 1.425-.82v-5.735l-1.425.816v5.74Z" fill="#FEEC96"/><path d="m26.067 30.54-.3-4.667-5.096-2.826" stroke="#fff" stroke-width=".25" stroke-miterlimit="10" stroke-linecap="round"/><path d="M25.745 25.913c-1.114-.645-4.014-2.249-5.074-2.865 1.071.564 3.994 2.19 5.118 2.786a.046.046 0 0 1-.044.08v-.001Z" fill="#fff"/><path d="M36.343 19.793c-.004-.027-10.672 6.252-10.526 6.077l.25 4.67-.35-4.664v-.031c.02-.015 10.605-6.035 10.628-6.052h-.002Z" fill="#fff"/><g style="mix-blend-mode:multiply" opacity=".4"><path d="m17.205 17.69-1.07 3.64 6.465 3.853-.3-4.668-5.095-2.825Z" fill="#FB8E2F" style="mix-blend-mode:multiply" opacity=".4"/><path d="m27.91 11.566 4.967 2.87-10.576 6.08-5.096-2.826 10.705-6.124Z" fill="#FB8E2F" style="mix-blend-mode:multiply" opacity=".4"/><path d="m34.162 18.332-1.285-3.897-10.576 6.08.3 4.668 11.56-6.851Zm-13.476-2.634v3.922l.889.493h.306v-5.098l-1.195.683Z" fill="#FB8E2F" style="mix-blend-mode:multiply" opacity=".4"/><path d="m30.063 16.053.712-.41v-2.421l-.712-.412v3.243Zm-7.375 4.24 1.426-.82v-5.736l-1.426.816v5.74Z" fill="#FB8E2F" style="mix-blend-mode:multiply" opacity=".4"/><path d="m22.6 25.183-.3-4.668-5.095-2.825" stroke="#FB8E2F" stroke-width=".25" stroke-miterlimit="10" stroke-linecap="round" style="mix-blend-mode:multiply" opacity=".4"/><path d="M22.278 20.555c-1.115-.646-4.014-2.248-5.073-2.865 1.07.564 3.992 2.19 5.117 2.787.01.006.016.015.019.027a.045.045 0 0 1-.063.052v-.001Z" fill="#FB8E2F" style="mix-blend-mode:multiply" opacity=".4"/><path d="M32.877 14.435c-.005-.026-10.673 6.252-10.526 6.077l.25 4.67-.35-4.664v-.03c.02-.016 10.606-6.037 10.63-6.053h-.004Z" fill="#FB8E2F" style="mix-blend-mode:multiply" opacity=".4"/></g><path d="m17.205 17.249-1.07 3.64 6.465 3.853-.3-4.667-5.095-2.826Z" fill="#FA9B3D"/><path d="m27.91 11.125 4.967 2.87-10.576 6.08-5.096-2.826 10.705-6.124Z" fill="#FFDB59"/><path d="m34.162 17.891-1.285-3.897-10.576 6.08.3 4.668 11.56-6.851Z" fill="#FEBD59"/><path d="M20.686 15.258v3.921l.889.493h.306v-5.097l-1.195.683Zm9.377.355.712-.41V12.78l-.712-.412v3.244Zm-7.375 4.239 1.426-.82v-5.735l-1.426.816v5.74Z" fill="#FEEC96"/><path d="m22.6 24.742-.3-4.667-5.095-2.826" stroke="#fff" stroke-width=".25" stroke-miterlimit="10" stroke-linecap="round"/><path d="M22.278 20.114c-1.115-.645-4.014-2.248-5.073-2.864 1.07.564 3.992 2.19 5.117 2.786a.046.046 0 0 1-.044.08v-.002Z" fill="#fff"/><path d="M32.877 13.994c-.005-.026-10.673 6.253-10.526 6.078l.25 4.67-.35-4.664v-.031c.02-.016 10.606-6.037 10.63-6.053h-.004Z" fill="#fff"/></g><defs><linearGradient id="b" x1="25" y1="0" x2="25" y2="61.409" gradientUnits="userSpaceOnUse"><stop stop-color="#08021E"/><stop offset="1" stop-color="#1F0777"/></linearGradient><filter id="a" x="0" y="0" width="50" height="50" filterUnits="userSpaceOnUse" color-interpolation-filters="sRGB"><feFlood flood-opacity="0" result="BackgroundImageFix"/><feColorMatrix in="SourceAlpha" values="0 0 0 0 0 0 0 0 0 0 0 0 0 0 0 0 0 0 127 0" result="hardAlpha"/><feOffset dy="4"/><feGaussianBlur stdDeviation="2"/><feComposite in2="hardAlpha" operator="out"/><feColorMatrix values="0 0 0 0 0 0 0 0 0 0 0 0 0 0 0 0 0 0 0.25 0"/><feBlend in2="BackgroundImageFix" result="effect1_dropShadow_5735_52277"/><feBlend in="SourceGraphic" in2="effect1_dropShadow_5735_52277" result="shape"/></filter></defs></svg>
